static/assets/images/icons/squid.svg

<svg width="256" height="256" viewBox="0 0 256 256" fill="none" xmlns="http://www.w3.org/2000/svg">
<path d="M36.0843 99.7232C29.6786 102.261 23.4804 106.943 18.1576 113.253C13.5921 118.664 10.5475 124.684 8.82418 133.059C6.28438 145.401 10.1005 154.433 13.68 164.959C13.4841 163.381 13.3221 161.689 13.1889 159.853C12.4603 149.861 16.9129 133.248 25.3627 123.827C30.7361 117.837 41.397 111.789 53.0901 111.789C57.6742 111.789 62.1015 112.699 66.2606 114.495C71.3912 116.713 75.3833 121.863 77.2099 128.632C79.593 137.451 78.49 148.594 73.9362 161.747C71.3102 169.34 69.8884 175.9 69.595 181.804C69.5342 183.165 69.5292 184.526 69.5848 185.842C69.9593 194.911 73.0912 202.631 79.168 209.441C86.6767 217.858 99.2904 222.688 113.772 222.688C118.553 222.684 123.345 222.163 128.009 221.13C153.314 215.53 163.236 198.293 167.102 184.821L167.103 184.818C167.188 184.507 167.273 184.197 167.355 183.886C170.274 172.603 168.523 160.57 162.143 148.123C158.024 140.079 153.333 134.167 149.195 128.952C142.597 120.637 137.39 114.073 137.102 103.089C137.101 103.018 137.1 102.947 137.098 102.875C137.097 102.789 137.095 102.701 137.093 102.613C137.089 102.43 137.084 102.242 137.082 102.048L137.077 101.888C136.981 96.2916 136.819 86.9192 128.338 86.9192C128.004 86.9192 127.65 86.9315 127.296 86.9602C124.518 87.1734 122.464 88.0712 121.185 89.6292C120.152 90.8879 118.067 94.668 121.068 102.528C123.234 108.202 127.62 113.372 132.7 119.358C135.706 122.9 139.111 126.914 142.364 131.436C148.871 140.485 153.207 147.172 154.128 157.307C155.115 168.139 151.396 179.553 143.933 188.618C139.045 194.558 129.021 201.491 116.873 201.491C113.094 201.491 109.375 200.807 105.813 199.454C100.581 197.469 96.6848 193.706 94.8481 188.851C91.4126 179.791 93.2493 171.123 95.3794 161.087C96.3863 156.36 97.4236 151.472 97.9498 146.212C99.4626 131.182 93.1126 114.61 82.1482 104.975C75.0595 98.7433 66.1999 95.4511 56.5358 95.4511C53.7225 95.4511 50.7778 95.7258 47.7925 96.2752C43.9926 96.9886 40.0511 98.1488 36.0843 99.7232Z" fill="black"/>
<path d="M220.37 152.965C226.776 150.427 232.974 145.749 238.297 139.435C242.501 134.453 245.292 128.884 247.035 121.173C249.729 109.26 246.258 100.442 243.049 90.1545C243.133 91.0143 243.208 91.9068 243.276 92.8354C244.004 102.827 239.551 119.44 231.102 128.861C225.729 134.851 215.073 140.899 203.374 140.899C198.795 140.899 194.363 139.989 190.204 138.193C185.074 135.975 181.081 130.821 179.255 124.056C176.872 115.237 177.974 104.094 182.528 90.9412C184.78 84.4346 186.136 78.748 186.667 73.5616C186.895 71.2616 186.966 69.0025 186.875 66.846C186.5 57.7769 183.369 50.0568 177.291 43.2468C169.783 34.8297 157.169 30 142.688 30C137.907 30 133.115 30.5248 128.45 31.558C103.819 37.0068 93.8261 53.5417 89.7833 66.4524C89.6518 66.8706 89.5253 67.2847 89.4089 67.6988C86.0796 79.2974 87.7341 91.6997 94.3219 104.557C98.4395 112.602 103.128 118.509 107.266 123.723L107.27 123.728C113.867 132.043 119.074 138.607 119.363 149.591C119.365 149.747 119.369 149.907 119.372 150.07C119.376 150.258 119.38 150.451 119.382 150.648V150.775C119.479 156.384 119.641 165.765 128.121 165.765C128.46 165.765 128.809 165.752 129.163 165.724C131.941 165.511 133.995 164.613 135.276 163.055C136.313 161.792 138.397 158.012 135.397 150.152C133.232 144.483 128.846 139.314 123.768 133.33L123.765 133.326C120.759 129.788 117.359 125.782 114.095 121.248C107.588 112.199 103.253 105.516 102.331 95.3773C101.344 84.5453 105.063 73.1311 112.526 64.0662C117.415 58.1295 127.438 51.1966 139.586 51.1966C143.366 51.1966 147.085 51.8813 150.647 53.2342C155.879 55.2186 159.77 58.9823 161.612 63.8366C165.047 72.8974 163.211 81.5647 161.081 91.6013L161.079 91.6073C160.077 96.3326 159.041 101.222 158.515 106.476C157.002 121.502 163.352 138.07 174.317 147.709C181.41 153.941 190.265 157.237 199.929 157.237C202.716 157.237 205.637 156.966 208.596 156.425C212.412 155.716 216.373 154.551 220.37 152.965Z" fill="black"/>
</svg>

<svg xmlns="http://www.w3.org/2000/svg" fill="none" viewBox="0 0 256 256"><path fill="#000" d="M36.084 99.723c-6.405 2.538-12.604 7.22-17.926 13.53-4.566 5.411-7.61 11.431-9.334 19.806-2.54 12.342 1.277 21.374 4.856 31.9-.196-1.578-.358-3.27-.491-5.106-.729-9.992 3.724-26.605 12.174-36.026 5.373-5.99 16.034-12.038 27.727-12.038 4.584 0 9.011.91 13.17 2.706 5.131 2.218 9.123 7.368 10.95 14.137 2.383 8.819 1.28 19.962-3.274 33.115-2.626 7.593-4.048 14.153-4.341 20.057a47 47 0 0 0-.01 4.038c.374 9.069 3.506 16.789 9.583 23.599 7.509 8.417 20.122 13.247 34.604 13.247a66.2 66.2 0 0 0 14.237-1.558c25.305-5.6 35.227-22.837 39.093-36.309l.001-.003q.128-.466.252-.932c2.919-11.283 1.168-23.316-5.212-35.763-4.119-8.044-8.81-13.956-12.948-19.171-6.598-8.315-11.805-14.879-12.093-25.863l-.004-.214-.005-.262q-.007-.274-.011-.565l-.005-.16c-.096-5.596-.258-14.969-8.739-14.969-.334 0-.688.013-1.042.041-2.778.213-4.832 1.111-6.111 2.67-1.033 1.258-3.118 5.038-.117 12.898 2.166 5.674 6.552 10.844 11.632 16.83 3.006 3.542 6.411 7.556 9.664 12.078 6.507 9.049 10.843 15.736 11.764 25.871.987 10.832-2.732 22.246-10.195 31.311-4.888 5.94-14.912 12.873-27.06 12.873a31 31 0 0 1-11.06-2.037c-5.232-1.985-9.128-5.748-10.965-10.603-3.435-9.06-1.599-17.728.531-27.764 1.007-4.727 2.045-9.615 2.57-14.875 1.514-15.03-4.836-31.602-15.8-41.237-7.09-6.232-15.95-9.524-25.613-9.524-2.814 0-5.758.275-8.744.824-3.8.714-7.74 1.874-11.708 3.448"/><path fill="#000" d="M220.37 152.965c6.406-2.538 12.604-7.216 17.927-13.53 4.204-4.982 6.995-10.551 8.738-18.262 2.694-11.913-.777-20.731-3.986-31.019q.126 1.29.227 2.681c.728 9.992-3.725 26.605-12.174 36.026-5.373 5.99-16.029 12.038-27.728 12.038-4.579 0-9.011-.91-13.17-2.706-5.13-2.218-9.123-7.372-10.949-14.137-2.383-8.819-1.281-19.962 3.273-33.115 2.252-6.506 3.608-12.193 4.139-17.38a48 48 0 0 0 .208-6.715c-.375-9.07-3.506-16.79-9.584-23.6C169.783 34.83 157.169 30 142.688 30a66 66 0 0 0-14.238 1.558c-24.631 5.449-34.624 21.984-38.667 34.894q-.198.627-.374 1.247c-3.33 11.598-1.675 24 4.913 36.858 4.117 8.045 8.806 13.952 12.944 19.166l.004.005c6.597 8.315 11.804 14.879 12.093 25.863l.009.479q.007.282.01.578v.127c.097 5.609.259 14.99 8.739 14.99q.51 0 1.042-.041c2.778-.213 4.832-1.111 6.113-2.669 1.037-1.263 3.121-5.043.121-12.903-2.165-5.669-6.551-10.838-11.629-16.822l-.003-.004c-3.006-3.538-6.406-7.544-9.67-12.078-6.507-9.049-10.842-15.732-11.764-25.87-.987-10.833 2.732-22.247 10.195-31.312 4.889-5.937 14.912-12.87 27.06-12.87 3.78 0 7.499.685 11.061 2.038 5.232 1.985 9.123 5.748 10.965 10.603 3.435 9.06 1.599 17.728-.531 27.764l-.002.006c-1.002 4.726-2.038 9.615-2.564 14.869-1.513 15.026 4.837 31.594 15.802 41.233 7.093 6.232 15.948 9.528 25.612 9.528 2.787 0 5.708-.271 8.667-.812 3.816-.709 7.777-1.874 11.774-3.46"/></svg>
